packages/icons/web/facebook_large.svg

<svg width="24" height="24" viewBox="0 0 24 24" fill="none" xmlns="http://www.w3.org/2000/svg">
<path fill-rule="evenodd" clip-rule="evenodd" d="M22 12C22 16.9913 18.3431 21.1283 13.5625 21.8785V14.8906H15.8926L16.3359 12H13.5625V10.1242C13.5625 9.33334 13.9499 8.5625 15.1921 8.5625H16.4531V6.10156C16.4531 6.10156 15.3087 5.90625 14.2146 5.90625C11.9304 5.90625 10.4375 7.29063 10.4375 9.79688V12H7.89844V14.8906H10.4375V21.8785C5.65686 21.1283 2 16.9913 2 12C2 6.47715 6.47715 2 12 2C17.5229 2 22 6.47715 22 12Z" fill="#212933"/>
</svg>

<svg width="24" height="24" fill="none" xmlns="http://www.w3.org/2000/svg">
    <path fill-rule="evenodd" clip-rule="evenodd" d="M22 12c0 4.991-3.657 9.128-8.438 9.878v-6.987h2.33L16.337 12h-2.773v-1.876c0-.79.387-1.562 1.63-1.562h1.26v-2.46s-1.144-.196-2.238-.196c-2.285 0-3.777 1.385-3.777 3.89V12h-2.54v2.89h2.54v6.988C5.657 21.128 2 16.991 2 12 2 6.477 6.477 2 12 2s10 4.477 10 10z" fill="currentColor"/>
</svg>
